UI/Map-View/SVG/select-section_outline_24px.svg

<svg width="24" height="24" viewBox="0 0 24 24" fill="none" xmlns="http://www.w3.org/2000/svg">
<path d="M20 2H13V11H22V4C22 3.46957 21.7893 2.96086 21.4142 2.58579C21.0391 2.21071 20.5304 2 20 2ZM20 9H15V4H20V9ZM13 22H20C20.5304 22 21.0391 21.7893 21.4142 21.4142C21.7893 21.0391 22 20.5304 22 20V13H13V22ZM15 15H20V20H15V15ZM2 20C2 20.5304 2.21071 21.0391 2.58579 21.4142C2.96086 21.7893 3.46957 22 4 22H11V13H2V20ZM4 15H9V20H4V15ZM7.66 2L2 7.68V10.52L10.49 2H7.66ZM4 2C3.46957 2 2.96086 2.21071 2.58579 2.58579C2.21071 2.96086 2 3.46957 2 4V4.83L4.83 2H4ZM11 11V10L10 11H11ZM7.18 11L11 7.16V4.32L4.35 11H7.18Z" fill="#0F1621"/>
</svg>

<svg xmlns="http://www.w3.org/2000/svg" width="24" height="24" viewBox="0 0 24 24"><rect width="24" height="24" transform="translate(24 24) rotate(180)" style="fill:none"/><path d="M20,2H13v9h9V4A2,2,0,0,0,20,2Zm0,7H15V4h5ZM13,22h7a2,2,0,0,0,2-2V13H13Zm2-7h5v5H15ZM2,20a2,2,0,0,0,2,2h7V13H2Zm2-5H9v5H4ZM7.66,2,2,7.68v2.84L10.49,2ZM4,2A2,2,0,0,0,2,4v.83L4.83,2Zm7,9V10l-1,1ZM7.18,11,11,7.16V4.32L4.35,11Z"/></svg>
